!!!COM: Music21
!!!OTL: polka_Clock-Tower--The
!!!OMV: polka_Clock-Tower--The
**kern
*clefG2
*k[f#]
*G:
*M2/4
=1
16bLL
16g
16g
16f#JJ
=
16aLL
16g
16g
16eJJ
4ryy
=
16dLL
16e
16f#
16gJJ
4ryy
=
8aL
16bL
16aJJ
4ryy
=
16bLL
16g
16g
16f#JJ
4ryy
=
16aLL
16g
16g
16eJJ
4ryy
=
16dLL
16e
16f#
16aJJ
4ryy
=
8gL
8gJ
4ryy
!!linebreak:original
=||
*M2/4
16bLL
16g
16g
16f#JJ
=
16aLL
16g
16g
16eJJ
4ryy
=
16dLL
16e
16f#
16gJJ
4ryy
=
8aL
16bL
16aJJ
4ryy
=
16bLL
16g
16g
16f#JJ
4ryy
=
16aLL
16g
16g
16eJJ
4ryy
=
16dLL
16e
16f#
16aJJ
4ryy
=
8gL
8gJ
4ryy
!!linebreak:original
=||
16aLL
16g
16f#
16eJJ
4ryy
=
8dL
16dL
16eJJ
4ryy
=
16dLL
16e
16f#
16gJJ
4ryy
=
8aL
16bL
16aJJ
4ryy
=
16bLL
16g
16g
16f#JJ
4ryy
=
16aLL
16g
16g
16eJJ
4ryy
=
16dLL
16e
16f#
16aJJ
4ryy
=
8gL
8gJ
4ryy
!!linebreak:original
=||
16aLL
16g
16f#
16eJJ
4ryy
=
8dL
16dL
16eJJ
4ryy
=
16dLL
16e
16f#
16gJJ
4ryy
=
8aL
16bL
16aJJ
4ryy
=
16bLL
16g
16g
16f#JJ
4ryy
=
16aLL
16g
16g
16eJJ
4ryy
=
16dLL
16e
16f#
16aJJ
4ryy
=
8gL
8gJ
4ryy
=||
*-
